src/main/resources/icons/AllIcons/nodes/keymapAnt.svg

<!-- Copyright 2000-2021 JetBrains s.r.o. Use of this source code is governed by the Apache 2.0 license that can be found in the LICENSE file. -->
<svg xmlns="http://www.w3.org/2000/svg" width="16" height="16" viewBox="0 0 16 16">
  <g fill="none" fill-rule="evenodd">
    <path fill="#9AA7B0" fill-opacity=".8" d="M6,8 L15,8 L15,4 L7.984,4 L6.696,2.711 C6.305,2.32 5.532,2 4.979,2 L1.051,2 C1.023,2 1,2.023 1,2.051 L1,13 L6,13 L6,8 Z"/>
    <g fill="#9AA7B0" transform="rotate(90 3.464 11.964)">
      <path d="M1.230909,8.21818183 L0.503636,8.21818183 L0.503636,6.18181818 C0.503636,5.73523807 1.24624741,5.02914924 3.43291896,3.55314594 L3.83980831,4.15594498 C2.87755253,4.80546763 2.15743608,5.32155108 1.68170729,5.70213412 C1.45097345,5.88672118 1.230909,6.24815906 1.230909,6.18181818 L1.230909,8.21818183 Z"/>
      <path d="M4.727273,8.21818183 L4,8.21818183 L4,6.18181818 C4,5.73523807 4.9026111,5.02914924 7.08928265,3.55314594 L7.496172,4.15594498 C6.53391622,4.80546763 5.81379977,5.32155108 5.33807098,5.70213412 C5.10733714,5.88672118 4.727273,6.24815906 4.727273,6.18181818 L4.727273,8.21818183 Z" transform="matrix(-1 0 0 1 11.496 0)"/>
      <circle cx="4" cy="1.455" r="1.455"/>
      <ellipse cx="4" cy="3.818" rx="1.091" ry="1.2"/>
      <path d="M4 8.21818196C5.00415409 8.21818196 5.81818182 7.913245 5.81818182 6.90909091 5.81818182 6.57028056 5.55966682 5.85542959 5.09090909 5.30909092 4.73604042 4.89549032 4.17615783 4.58181832 4 4.58181832 3.76120396 4.58181832 3.2570638 4.8707655 2.90909091 5.30909092 2.45796903 5.87734836 2.18181818 6.65178653 2.18181818 6.90909091 2.18181818 7.913245 2.99584591 8.21818196 4 8.21818196zM3.35500451 2.84579398L3.19045003 3.5542059C2.57779163 3.41189366 2.05985761 3.15325183 1.61374043 2.77855431 1.137983 2.37896169.74390253 1.84737948.403715459 1.18413988L1.05083.852223633C1.6200594 1.9620115 2.32126518 2.60567036 3.35500451 2.84579398z"/>
      <path d="M7.35500451,2.84579398 L7.19045003,3.5542059 C5.92442789,3.26012613 5.06289554,2.46929846 4.40371546,1.18413988 L5.05083,0.852223633 C5.6200594,1.9620115 6.32126518,2.60567036 7.35500451,2.84579398 Z" transform="matrix(-1 0 0 1 11.759 0)"/>
      <polygon points=".5 3.418 7.5 3.418 7.5 4.145 .5 4.145"/>
    </g>
  </g>
</svg>

<svg xmlns="http://www.w3.org/2000/svg" width="16" height="16" viewBox="0 0 16 16"><rect id="frame" width="16" height="16" fill="none"/><g fill="#9AA7B0" fill-rule="evenodd"><path fill-opacity=".8" d="M6 8h9V4H7.984L6.696 2.711C6.305 2.32 5.532 2 4.979 2H1.051A.051.051 0 0 0 1 2.051V13h5V8z"/><g transform="rotate(90 3.464 11.964)"><path d="M1.23 8.218H.505V6.182c0-.447.742-1.153 2.929-2.629l.407.603c-.962.65-1.683 1.166-2.158 1.546-.231.185-.451.546-.451.48v2.036z"/><path d="M6.769 8.218h.727V6.182c0-.447-.903-1.153-3.09-2.629L4 4.156c.962.65 1.682 1.166 2.158 1.546.23.185.61.546.61.48v2.036z"/><circle cx="4" cy="1.455" r="1.455"/><ellipse cx="4" cy="3.818" rx="1.091" ry="1.2"/><path d="M4 8.218c1.004 0 1.818-.305 1.818-1.309 0-.339-.258-1.054-.727-1.6-.355-.414-.915-.727-1.091-.727-.239 0-.743.289-1.09.727-.452.568-.728 1.343-.728 1.6 0 1.004.814 1.31 1.818 1.31zm-.645-5.372l-.165.708a3.7 3.7 0 0 1-1.576-.775c-.476-.4-.87-.932-1.21-1.595L1.05.852c.57 1.11 1.27 1.754 2.304 1.994z"/><path d="M4.404 2.846l.165.708c1.266-.294 2.127-1.085 2.786-2.37L6.708.852c-.57 1.11-1.27 1.754-2.304 1.994z"/><path d="M.5 3.418h7v.727h-7z"/></g></g></svg>
